X:1588
T:Mullingar Races, The
R:hornpipe
N:"1st Setting" "Collected by F. O'Neill"
B:O'Neill's 1588
Z:Transcribed by Michael Hogan
M:2/4
L:1/16
K:G
D2|GABG ABcA|defd dcBA|BcBG ABAG|FGAB cAFD|
GABG ABcA|defd dcBA|B2d2 cAGF|DGAGF G2 :|
3def|g2eg f2ed|gage f2ed|defg abag|f2dd dedc|
B2BG AFD2|BdBG ABcA|defd cAGF|DGAGF G2 :||
